X: 4325
T: LET ME GAZE. (Faust.)
%R: mazurka, waltz
B: James Kerr "Merry Melodies" v.4 p.34 #325
Z: 2016 John Chambers <jc:trillian.mit.edu>
M: 3/4
L: 1/8
K: G
|:\
B>A d4 | e>d a4 | g>d B2 dc | B2 A4 |\
A>B A2 Gd | (d2 c2) f>e | d4 A2 | B6 |\
zB e3 e | ^d^c B4 | =d2 =f3 e | eB c4 |\
ABceb>a | (a2 g2) zB | (f2 e2) zG | ed d2 F2 |\
G6 :|

%%sep 1 1 500
%%sep 1 1 500

